icons/Briefcase_2_filled.svg

<svg width="24" height="24" viewBox="0 0 24 24" fill="none" xmlns="http://www.w3.org/2000/svg">
<path fill-rule="evenodd" clip-rule="evenodd" d="M13.9999,2.25c1.5188,0 2.75,1.23122 2.75,2.75v1.25h2.25c1.5188,0 2.75,1.23122 2.75,2.75v2.7397c-2.4297,1.6519 -6.0963,3.0103 -9.7499,3.0103c-3.65373,0 -7.32041,-1.3585 -9.75012,-3.0105v-2.7395c0,-1.51878 1.23121,-2.75 2.75,-2.75h2.25v-1.25c0,-1.51878 1.23121,-2.75 2.75,-2.75zM2.24988,18v-4.4846c2.62148,1.5567 6.18058,2.7346 9.75012,2.7346c3.5694,0 7.1284,-1.1779 9.7499,-2.7344v4.4844c0,1.5188 -1.2312,2.75 -2.75,2.75h-14.00002c-1.51879,0 -2.75,-1.2312 -2.75,-2.75zM15.2499,6.25v-1.25c0,-0.69036 -0.5597,-1.25 -1.25,-1.25h-4.00002c-0.69036,0 -1.25,0.55964 -1.25,1.25v1.25zM12,13c0.5523,0 1,-0.4477 1,-1c0,-0.5523 -0.4477,-1 -1,-1c-0.5523,0 -1,0.4477 -1,1c0,0.5523 0.4477,1 1,1z" fill="#002B51"/>
</svg>

<svg width="24" height="24" viewBox="0 0 24 24" fill="none" xmlns="http://www.w3.org/2000/svg">
<path fill-rule="evenodd" clip-rule="evenodd" d="M9.99988 2.25C8.48109 2.25 7.24988 3.48122 7.24988 5V6.25H4.99988C3.48109 6.25 2.24988 7.48122 2.24988 9V11.7395C4.67959 13.3915 8.34627 14.75 12 14.75C15.6536 14.75 19.3202 13.3916 21.7499 11.7397V9C21.7499 7.48122 20.5187 6.25 18.9999 6.25H16.7499V5C16.7499 3.48122 15.5187 2.25 13.9999 2.25H9.99988ZM2.24988 18V13.5154C4.87136 15.0721 8.43046 16.25 12 16.25C15.5694 16.25 19.1284 15.0721 21.7499 13.5156V18C21.7499 19.5188 20.5187 20.75 18.9999 20.75H4.99988C3.48109 20.75 2.24988 19.5188 2.24988 18ZM15.2499 6.25V5C15.2499 4.30964 14.6902 3.75 13.9999 3.75H9.99988C9.30952 3.75 8.74988 4.30964 8.74988 5V6.25H15.2499ZM12 13C12.5523 13 13 12.5523 13 12C13 11.4477 12.5523 11 12 11C11.4477 11 11 11.4477 11 12C11 12.5523 11.4477 13 12 13Z" fill="#002B51"/>
</svg>
